X:4
T: Mademoiselle McCloud
K:G
M:C|
L:1/8
%%scale .9
"G"G2Bd edBg-|gBBA BcBA|"G"G2Bd "G#dim"edBg- |"Am" gAAG "D/F#"AcBA|
"G"G2Bd edBg- | gBBA Bdef|"C"gage "A/C#"d2fa | "D"gedB "D/F#"A[1cBA:|2def||
|:"G".g2.f2 "D/F#"edBg-|"Em"gBBA "D/F#"Bdef|"G"gage "Em"d2fa|"Am" gedB "D"Adef|
"G".g2.f2 "D/F#"edBg-|"Em"gBBA "D/F#"Bdef|"C"gage "A/C#"d2fa|"D" gedB "D/F#"A[1def:|[2cBA|]
%%text $1End on a G chord
%%scale .5
%%text 4/25/13
